_site/images/verification-page/verify-icon.svg

<svg fill="none" height="80" viewBox="0 0 80 80" width="80" xmlns="http://www.w3.org/2000/svg" xmlns:xlink="http://www.w3.org/1999/xlink"><clipPath id="a"><path d="m22 22h36v36h-36z"/></clipPath><rect fill="#00a0b6" height="80" rx="25" width="80"/><g clip-path="url(#a)" fill="#fff"><path d="m57.3824 30.7179c-.0585-.4892-.4485-.8727-.9385-.9239-.022-.0023-2.2166-.2381-3.7327-.9681-1.2786-.6156-2.2832-1.526-2.7346-1.9751v-3.7961c0-.5825-.4723-1.0547-1.0547-1.0547h-25.3125c-.5825 0-1.0547.4722-1.0547 1.0547v33.8906c0 .5825.4722 1.0547 1.0547 1.0547h18.5695.0001c.2854 0 .558-.1211.7458-.309l6.7366-6.7365c.1912-.1883.3151-.4568.3151-.7515v-3.615c3.4977-2.1763 5.8833-5.5398 6.9148-9.7668.8099-3.319.5046-5.9911.4911-6.1033zm-32.7183-6.6085h23.2032v2.7414c-.4523.4498-1.4566 1.3598-2.7345 1.9752-1.5162.73-3.7109.9657-3.7322.968-.4906.0506-.8806.4343-.9391.924-.0134.1121-.3188 2.7843.4909 6.1032 1.0315 4.2271 3.4172 7.5906 6.9149 9.7669v2.5603h-5.6883c-.5825 0-1.0547.4722-1.0547 1.0547v5.6875h-16.4602zm21.7111 27.1483-3.1416 3.1416v-3.1416zm8.4669-14.9365c-.9044 3.7068-2.8951 6.5435-5.9202 8.4406-4.548-2.8521-6.5404-7.8857-6.4116-12.9966 2.5443-.4311 4.4021-1.1863 6.4116-3.0071 2.0056 1.8171 3.8624 2.5753 6.4133 3.0073.0248.9416-.0221 2.6259-.4931 4.5558z"/><path d="m53.4641 33.5389c-.4411-.3804-1.1072-.331-1.4875.1099l-3.2157 3.729-1.7886-1.7885c-.4118-.4118-1.0796-.4118-1.4915 0-.4119.4119-.4119 1.0797 0 1.4916l2.5914 2.5914c.4325.4324 1.1432.4083 1.5445-.0571l3.9573-4.589c.3804-.4409.3312-1.1068-.1099-1.4873z"/><path d="m32.0469 26.2188h-4.2188c-.5824 0-1.0547.4722-1.0547 1.0546v4.2188c0 .5825.4723 1.0547 1.0547 1.0547h4.2188c.5824 0 1.0547-.4722 1.0547-1.0547v-4.2188c0-.5824-.4723-1.0546-1.0547-1.0546zm-1.0547 4.2187h-2.1094v-2.1094h2.1094z"/><path d="m32.0469 34.6562h-4.2188c-.5824 0-1.0547.4723-1.0547 1.0547v4.2188c0 .5825.4723 1.0547 1.0547 1.0547h4.2188c.5824 0 1.0547-.4722 1.0547-1.0547v-4.2188c0-.5824-.4723-1.0547-1.0547-1.0547zm-1.0547 4.2188h-2.1094v-2.1094h2.1094z"/><path d="m32.0469 43.0938h-4.2188c-.5824 0-1.0547.4722-1.0547 1.0546v4.2188c0 .5825.4723 1.0547 1.0547 1.0547h4.2188c.5824 0 1.0547-.4722 1.0547-1.0547v-4.2188c0-.5824-.4723-1.0546-1.0547-1.0546zm-1.0547 4.2187h-2.1094v-2.1094h2.1094z"/></g></svg>

<svg width="80" height="80" viewBox="0 0 80 80" fill="none" xmlns="http://www.w3.org/2000/svg">
<rect width="80" height="80" rx="25" fill="#00A0B6"/>
<g clip-path="url(#clip0)">
<path d="M57.3824 30.7179C57.3239 30.2287 56.9339 29.8452 56.4439 29.794C56.4219 29.7917 54.2273 29.5559 52.7112 28.8259C51.4326 28.2103 50.428 27.2999 49.9766 26.8508V23.0547C49.9766 22.4722 49.5043 22 48.9219 22H23.6094C23.0269 22 22.5547 22.4722 22.5547 23.0547V56.9453C22.5547 57.5278 23.0269 58 23.6094 58H42.1789H42.179H42.179C42.4644 58 42.737 57.8789 42.9248 57.691L49.6614 50.9545C49.8526 50.7662 49.9765 50.4977 49.9765 50.203V46.588C53.4742 44.4117 55.8598 41.0482 56.8913 36.8212C57.7012 33.5022 57.3959 30.8301 57.3824 30.7179ZM24.6641 24.1094H47.8673V26.8508C47.415 27.3006 46.4107 28.2106 45.1328 28.826C43.6166 29.556 41.4219 29.7917 41.4006 29.794C40.91 29.8446 40.52 30.2283 40.4615 30.718C40.4481 30.8301 40.1427 33.5023 40.9524 36.8212C41.9839 41.0483 44.3696 44.4118 47.8673 46.5881V49.1484H42.179C41.5965 49.1484 41.1243 49.6206 41.1243 50.2031V55.8906H24.6641V24.1094ZM46.3752 51.2577L43.2336 54.3993V51.2577H46.3752ZM54.8421 36.3212C53.9377 40.028 51.947 42.8647 48.9219 44.7618C44.3739 41.9097 42.3815 36.8761 42.5103 31.7652C45.0546 31.3341 46.9124 30.5789 48.9219 28.7581C50.9275 30.5752 52.7843 31.3334 55.3352 31.7654C55.36 32.707 55.3131 34.3913 54.8421 36.3212Z" fill="white"/>
<path d="M53.4641 33.5389C53.023 33.1585 52.3569 33.2079 51.9766 33.6488L48.7609 37.3778L46.9723 35.5893C46.5605 35.1775 45.8927 35.1775 45.4808 35.5893C45.0689 36.0012 45.0689 36.669 45.4808 37.0809L48.0722 39.6723C48.5047 40.1047 49.2154 40.0806 49.6167 39.6152L53.574 35.0262C53.9544 34.5853 53.9052 33.9194 53.4641 33.5389Z" fill="white"/>
<path d="M32.0469 26.2188H27.8281C27.2457 26.2188 26.7734 26.691 26.7734 27.2734V31.4922C26.7734 32.0747 27.2457 32.5469 27.8281 32.5469H32.0469C32.6293 32.5469 33.1016 32.0747 33.1016 31.4922V27.2734C33.1016 26.691 32.6293 26.2188 32.0469 26.2188ZM30.9922 30.4375H28.8828V28.3281H30.9922V30.4375Z" fill="white"/>
<path d="M32.0469 34.6562H27.8281C27.2457 34.6562 26.7734 35.1285 26.7734 35.7109V39.9297C26.7734 40.5122 27.2457 40.9844 27.8281 40.9844H32.0469C32.6293 40.9844 33.1016 40.5122 33.1016 39.9297V35.7109C33.1016 35.1285 32.6293 34.6562 32.0469 34.6562ZM30.9922 38.875H28.8828V36.7656H30.9922V38.875Z" fill="white"/>
<path d="M32.0469 43.0938H27.8281C27.2457 43.0938 26.7734 43.566 26.7734 44.1484V48.3672C26.7734 48.9497 27.2457 49.4219 27.8281 49.4219H32.0469C32.6293 49.4219 33.1016 48.9497 33.1016 48.3672V44.1484C33.1016 43.566 32.6293 43.0938 32.0469 43.0938ZM30.9922 47.3125H28.8828V45.2031H30.9922V47.3125Z" fill="white"/>
</g>
<defs>
<clipPath id="clip0">
<rect width="36" height="36" fill="white" transform="translate(22 22)"/>
</clipPath>
</defs>
</svg>
